X:112
T:112 Untitled March
C:Welch MS
I:abc2nwc
M:4/4
L:1/8
K:C
G2|c2c3/2c/2 c2c3/2d/2|d2d3/2d/2 d2d2|e2dc g2fe|d2d3/2d/2 d2G2|
c2c3/2c/2 cG EG|A2A3/2A/2 f3e| (3dcB  (3gfe e2d2|c2c3/2c/2 c2:|
ed|c2GE C2ed|c2GE C2ed|e2dc g2fe|d2d3/2d/2 d2ed|
c2GE C2ed|c2GE C2ed| (3edc  (3gfe e2d2|c2c3/2c/2 c2:|

